src/icons/help-circled.svg

<svg xmlns="http://www.w3.org/2000/svg" width="512" height="512" viewBox="0 0 512 512">
    <path d="M256 89.5c-88.4 0-160 71.6-160 160s71.6 160 160 160 160-71.6 160-160-71.6-160-160-160zm14.4 233.4c-.4 12.7-9.8 20.6-22 20.2-11.7-.4-20.9-8.7-20.6-21.5.4-12.7 10.1-20.8 21.8-20.4 12.3.3 21.3 8.9 20.8 21.7zm34.8-91c-3 4.2-9.7 9.6-18.1 16.2l-9.4 6.4c-4.6 3.5-7.4 7.6-8.9 12.4-.8 2.5-1.4 9-1.5 13.4-.1.9-.6 2.8-3.2 2.8h-27.9c-2.9 0-3.3-1.7-3.2-2.6.4-11.9 2.1-21.6 7.1-29.5 6.6-10.6 25.4-21.7 25.4-21.7 2.9-2.1 5.1-4.4 6.8-6.9 3.1-4.3 5.7-9.1 5.7-14.2 0-5.9-1.4-11.6-5.2-16.3-4.4-5.5-9.2-8.1-18.4-8.1-9.1 0-14.4 4.6-18.1 10.6-3.8 6-3.1 13.1-3.1 19.5h-34.8c0-24.3 6.4-39.8 19.8-48.9 9.1-6.2 20.6-8.9 34.1-8.9 17.7 0 31.8 3.3 44.2 12.7 11.5 8.7 17.6 21 17.6 37.6-.2 10-3.8 18.6-8.9 25.5z"/>
</svg>

<?xml version="1.0" encoding="UTF-8"?>
<svg width="512px" height="512px" viewBox="0 0 512 512" version="1.1" xmlns="http://www.w3.org/2000/svg" xmlns:xlink="http://www.w3.org/1999/xlink">
    <!-- Generator: Sketch 62 (91390) - https://sketch.com -->
    <title>help-circled</title>
    <desc>Created with Sketch.</desc>
    <g id="help-circled" stroke="none" stroke-width="1" fill="none" fill-rule="evenodd">
        <path d="M256,89.5 C167.6,89.5 96,161.1 96,249.5 C96,337.9 167.6,409.5 256,409.5 C344.4,409.5 416,337.9 416,249.5 C416,161.1 344.4,89.5 256,89.5 Z M270.4,322.9 C270,335.6 260.6,343.5 248.4,343.1 C236.7,342.7 227.5,334.4 227.8,321.6 C228.2,308.9 237.9,300.8 249.6,301.2 C261.9,301.5 270.9,310.1 270.4,322.9 Z M305.2,231.9 C302.2,236.1 295.5,241.5 287.1,248.1 L277.7,254.5 C273.1,258 270.3,262.1 268.8,266.9 C268,269.4 267.4,275.9 267.3,280.3 C267.2,281.2 266.7,283.1 264.1,283.1 L236.2,283.1 C233.3,283.1 232.9,281.4 233,280.5 C233.4,268.6 235.1,258.9 240.1,251 C246.7,240.4 265.5,229.3 265.5,229.3 C268.4,227.2 270.6,224.9 272.3,222.4 C275.4,218.1 278,213.3 278,208.2 C278,202.3 276.6,196.6 272.8,191.9 C268.4,186.4 263.6,183.8 254.4,183.8 C245.3,183.8 240,188.4 236.3,194.4 C232.5,200.4 233.2,207.5 233.2,213.9 L198.4,213.9 C198.4,189.6 204.8,174.1 218.2,165 C227.3,158.8 238.8,156.1 252.3,156.1 C270,156.1 284.1,159.4 296.5,168.8 C308,177.5 314.1,189.8 314.1,206.4 C313.9,216.4 310.3,225 305.2,231.9 L305.2,231.9 Z" id="Shape" fill="#000000" fill-rule="nonzero"></path>
    </g>
</svg>
